X: 188
T: Within A Mile Of Dublin
R: reel
M: C|
L: 1/8
K:Dmix
FG|"D"ADDE FEFG|AD (3DDD "Am"c2 BG|"D"ADDE FEFG|AdcA "G"G2 :|
FG|"D"Addc AGFG|Adde fded|Addc AGFG|"Am"ABcA "G"G2 FG|
"D"Addc AGFG|Adde f2 fg|afge fde^c|d^cAF "G"G2 FG|]


